icons/source/generic/systems.svg

<?xml version="1.0" encoding="utf-8"?>
<!-- Generated by IcoMoon.io -->
<!DOCTYPE svg PUBLIC "-//W3C//DTD SVG 1.1//EN" "http://www.w3.org/Graphics/SVG/1.1/DTD/svg11.dtd">
<svg version="1.1" xmlns="http://www.w3.org/2000/svg" xmlns:xlink="http://www.w3.org/1999/xlink" width="32" height="32" viewBox="0 0 32 32">
<path d="M25.688 23.882v1.938h1.938v1.938h-11.626v-1.938h1.937v-1.938h-5.812v-17.438h19.375v17.438h-5.812zM29.562 8.382h-15.5v13.562h15.5v-13.562zM0.5 4.507h9.688v23.25h-9.688v-23.25zM2.438 21.944h1.938v-1.938h-1.938v1.938zM2.438 18.070h1.938v-1.938h-1.938v1.938zM2.438 12.257h5.812v-1.938h-5.812v1.938zM2.438 8.382h5.812v-1.938h-5.812v1.938z"></path>
</svg>

<svg xmlns="http://www.w3.org/2000/svg" width="32" height="32" viewBox="0 0 32 32"><path d="M25.688 23.882v1.938h1.938v1.938H16V25.82h1.937v-1.938h-5.812V6.444H31.5v17.438h-5.812zm3.874-15.5h-15.5v13.562h15.5V8.382zM.5 4.507h9.688v23.25H.5V4.507zm1.938 17.437h1.938v-1.938H2.438v1.938zm0-3.874h1.938v-1.938H2.438v1.938zm0-5.813H8.25v-1.938H2.438v1.938zm0-3.875H8.25V6.444H2.438v1.938z"/></svg>
